X: 37
T:Hatton of Buchromb's Reel
B:William Marshall's Scottish Airs, Melodies, Strathspeys, Reels &c (1822)
C:William Marshall
L:1/8
M:C|
O:Scotland
R:Reel
Z:Clark Bernst + Richard Robinson
%%Page:29 - 3
F:http://richardrobinson.tunebook.org.uk/tune/3880
%%TBL:{"version":1,"type":"tune","id":"3880"}
K:F minor
%%staves {1 2}
V:1
=E | \
Ff-f.=d eEGB | Ff-fe c=def | gef=d eEGB | cABG !trill!F2 {=E}F :|
g | \
afcf eEGg | afcf =efcf | c=def gEGB | cABG F2 {E}(Fg) |
afcf eEGg | afcf =efcf | gabg eEGB | cABG {=E}!trill!F2 F |]
V:2 middle=d clef=bass
L:1/4
z/ | FFEE | FFFA | GAEE |FcFF/ :| \
z/ | ffee | ffcf | aaee | fcff/z/ | ffee | ffcf | eee=e | fcff/ |]

